public/icons/kitchen_icon.svg

<svg width="330" height="330" viewBox="0 0 330 330" fill="none" xmlns="http://www.w3.org/2000/svg">
<path d="M247.808 151.358C248.818 151.27 249.773 151.237 250.773 151.449C252.378 151.786 253.63 152.765 254.459 154.169C256.009 156.792 255.505 160.955 254.639 163.756L271.69 163.754C276.25 163.754 281.612 162.746 285.073 166.211C285.785 168.238 285.731 169.29 285.082 171.327C284.649 171.734 283.946 172.606 283.451 172.856C279.341 174.938 237.147 173.48 229.478 173.44C229.649 173.93 229.821 174.479 229.866 174.992C230.307 179.78 225.351 200.19 222.178 203.674C235.687 203.682 297.771 201.781 305.485 204.608C306.846 205.107 307.531 205.644 308.18 206.928C309.063 208.682 309.396 210.435 309.531 212.385C310.297 223.364 310.279 304.099 308.297 309.987C305.819 312.103 304.548 312.084 301.34 312.313C291.544 313.012 281.432 312.553 271.609 312.554L216.852 312.555L45.8447 312.528C39.4435 312.586 25.8823 314.389 20.7779 310.538L21.1069 309.592L20.3896 309.553C19.7542 306.069 19.6641 302.22 19.6262 298.682C19.5136 288.14 18.4438 208.661 21.48 205.68C25.5948 201.64 79.6081 203.654 88.438 203.682C88.3155 194.227 87.1042 183.025 89.4221 173.88C90.8009 168.44 93.838 163.763 98.7946 160.971C103.644 158.239 109.486 157.356 114.86 158.882C120.316 160.392 124.946 164.013 127.725 168.945C129.979 173.029 131.483 178.044 130.21 182.666C128.749 184.327 127.899 185.431 125.649 185.981C120.126 183.682 121.526 176.13 117.855 171.996C115.747 169.622 113.224 168.137 109.992 167.961C107.081 167.803 104.189 168.635 102.111 170.746C95.5016 177.459 97.9556 194.633 98.0655 203.673L192.169 203.754C198.315 203.732 208.165 203.865 213.437 200.593C218.655 197.352 217.006 172.681 224.143 165.951C228.126 162.194 238.76 163.681 243.87 163.78C246.403 159.755 243.933 155.695 247.808 151.358Z" fill="black"/>
<path d="M122.421 213.207L205.983 213.206C206.433 213.935 206.731 214.434 206.929 215.275C208.281 220.973 207.866 290.652 207.064 299.559C206.956 300.822 206.55 301.77 205.847 302.824C202.125 304.792 132.791 303.381 122.488 303.367L122.421 213.207Z" fill="#FEFEFE"/>
<path d="M134.546 240.065C136.488 240.124 137.737 240.233 139.476 241.131C140.86 242.623 141.381 244.119 141.742 246.074C142.956 252.662 143.442 266.115 139.538 271.732C137.646 271.728 136.41 271.487 134.694 270.682C133.27 269.237 132.759 267.755 132.398 265.812C131.197 259.357 130.733 245.541 134.546 240.065Z" fill="black"/>
<path d="M28.293 213.19L112.922 213.214C111.613 243.034 112.756 273.409 112.801 303.288C84.7854 304.338 56.3752 303.362 28.3173 303.362L28.293 213.19Z" fill="#FEFEFE"/>
<path d="M95.0818 240.105C97.1437 240.1 98.5973 240.121 100.492 240.982C102.057 242.497 102.473 244.247 102.867 246.311C104.06 252.568 104.406 266.002 100.814 271.372C99.0714 271.3 97.6808 271.187 96.0677 270.476C94.9971 270.004 94.204 268.407 93.8346 267.368C91.5671 261.003 92.0655 246.127 95.0818 240.105Z" fill="black"/>
<path d="M215.743 251.15C225.675 250.455 235.876 250.881 245.843 250.879L299.275 250.889C299.762 251.616 300.095 252.325 300.303 253.181C301.177 256.752 301.321 298.397 300.321 300.99C300.068 301.635 299.338 302.454 298.942 303.051C291.219 304.663 280.684 303.434 272.744 303.418L214.752 303.37C217.392 299.133 216.545 258.27 215.743 251.15Z" fill="#FEFEFE"/>
<path d="M215.22 213.619C223.664 212.01 233.884 213.082 242.581 213.088L299.374 213.152C299.743 213.752 300.113 214.424 300.293 215.109C301.582 220.145 301.807 236.455 299.257 240.786C296.012 242.451 224.719 241.275 214.607 241.262C214.689 241.124 214.779 240.99 214.86 240.848C217.599 235.908 216.788 218.933 215.22 213.619Z" fill="#FED100"/>
<path d="M258.595 222.421C262.317 222.344 266.426 221.992 270.103 222.562C272.761 222.975 275.961 224.213 277.547 226.456C277.511 227.839 277.529 228.164 276.501 229.15C271.779 233.709 262.488 232.51 256.576 232.377C252.313 232.44 247.231 232.999 243.355 230.897C241.463 229.872 240.805 229.313 240.201 227.266C240.535 226.576 240.94 225.878 241.526 225.365C246.05 221.399 253.034 222.324 258.595 222.421Z" fill="black"/>
<path d="M24.4002 21.9813L228.793 21.9302C244.185 21.9227 295.986 20.2343 306.106 22.8392C307.007 23.5228 307.764 24.2367 308.26 25.2768C309.179 27.21 309.495 29.5118 309.621 31.6263C310.198 41.4844 310.081 123.01 308.729 126.006C307.674 128.352 305.611 129.22 303.322 129.975C302.889 130.057 302.745 130.094 302.267 130.131C289.119 131.13 275.276 130.301 262.056 130.285L183.886 130.218L78.1557 130.23C61.5691 130.233 44.6059 131.016 28.0662 130.307C25.5204 130.198 23.5702 129.782 21.5722 128.071C20.27 126.104 19.805 124.35 19.6121 122.028C18.4847 108.448 19.6193 93.6971 19.5904 79.9791C19.5598 65.0589 17.9854 39.0728 20.1078 25.4555C21.1919 23.4354 22.3418 22.8786 24.4002 21.9813Z" fill="black"/>
<path d="M122.441 31.1757L205.992 31.1847C206.434 31.9137 206.731 32.4238 206.93 33.2601C208.191 38.4672 207.858 109.125 207.065 117.579C206.948 118.788 206.551 119.672 205.857 120.663C202.577 122.419 132.946 121.189 122.471 121.188L122.441 31.1757Z" fill="#FEFEFE"/>
<path d="M134.286 71.516C136.307 71.5583 137.68 71.6061 139.492 72.5451C141.063 74.234 141.509 76.0102 141.874 78.2128C142.91 84.4689 143.39 97.2974 139.61 102.528C137.932 102.498 136.511 102.245 134.894 101.806C133.319 100.411 132.795 98.9862 132.396 96.9874C131.18 90.8737 130.78 76.6924 134.286 71.516Z" fill="black"/>
<path d="M215.428 31.6128C223.863 30.0925 233.921 31.1203 242.572 31.1253L299.357 31.1874C299.798 31.9183 300.105 32.4193 300.294 33.2602C301.628 38.9467 301.267 108.793 300.447 117.581C300.339 118.775 299.942 119.635 299.249 120.608C296.157 122.371 224.251 121.198 214.933 121.213C216.717 117.838 217.249 39.4207 215.428 31.6128Z" fill="#FEFEFE"/>
<path d="M28.3191 31.1694L112.881 31.191C111.995 61.0486 112.577 91.263 112.862 121.139L28.293 121.167L28.3191 31.1694Z" fill="#FEFEFE"/>
<path d="M95.0484 71.5989C97.1158 71.5799 98.5964 71.5917 100.528 72.4442C102.021 73.9843 102.497 75.511 102.885 77.5567C104.052 83.6974 104.347 97.3848 100.767 102.605C99.0119 102.538 97.5826 102.289 95.9127 101.745C94.7988 100.656 94.1319 99.6793 93.6687 98.177C91.7564 91.9668 91.9114 77.5909 95.0484 71.5989Z" fill="black"/>
</svg>

<svg xmlns="http://www.w3.org/2000/svg" width="330" height="330" fill="none" viewBox="0 0 330 330"><path fill="#000" d="M247.808 151.358c1.01-.088 1.965-.121 2.965.091 1.605.337 2.857 1.316 3.686 2.72 1.55 2.623 1.046 6.786.18 9.587l17.051-.002c4.56 0 9.922-1.008 13.383 2.457.712 2.027.658 3.079.009 5.116-.433.407-1.136 1.279-1.631 1.529-4.11 2.082-46.304.624-53.973.584.171.49.343 1.039.388 1.552.441 4.788-4.515 25.198-7.688 28.682 13.509.008 75.593-1.893 83.307.934 1.361.499 2.046 1.036 2.695 2.32.883 1.754 1.216 3.507 1.351 5.457.766 10.979.748 91.714-1.234 97.602-2.478 2.116-3.749 2.097-6.957 2.326-9.796.699-19.908.24-29.731.241l-54.757.001-171.007-.027c-6.401.058-19.963 1.861-25.067-1.99l.329-.946-.717-.039c-.636-3.484-.726-7.333-.764-10.871-.112-10.542-1.182-90.021 1.854-93.002 4.115-4.04 58.128-2.026 66.958-1.998-.123-9.455-1.334-20.657.984-29.802 1.379-5.44 4.416-10.117 9.373-12.909 4.849-2.732 10.691-3.615 16.065-2.089a21.28 21.28 0 0 1 12.865 10.063c2.254 4.084 3.758 9.099 2.485 13.721-1.461 1.661-2.311 2.765-4.561 3.315-5.523-2.299-4.123-9.851-7.794-13.985-2.108-2.374-4.631-3.859-7.863-4.035-2.911-.158-5.803.674-7.881 2.785-6.61 6.713-4.155 23.887-4.046 32.927l94.104.081c6.146-.022 15.996.111 21.268-3.161 5.218-3.241 3.569-27.912 10.706-34.642 3.983-3.757 14.617-2.27 19.727-2.171 2.533-4.025.063-8.085 3.938-12.422"/><path fill="#fefefe" d="m122.421 213.207 83.562-.001c.45.729.748 1.228.946 2.069 1.352 5.698.937 75.377.135 84.284-.108 1.263-.514 2.211-1.217 3.265-3.722 1.968-73.056.557-83.359.543z"/><path fill="#000" d="M134.546 240.065c1.942.059 3.191.168 4.93 1.066 1.384 1.492 1.905 2.988 2.266 4.943 1.214 6.588 1.7 20.041-2.204 25.658-1.892-.004-3.128-.245-4.844-1.05-1.424-1.445-1.935-2.927-2.296-4.87-1.201-6.455-1.665-20.271 2.148-25.747"/><path fill="#fefefe" d="m28.293 213.19 84.629.024c-1.309 29.82-.166 60.195-.121 90.074-28.016 1.05-56.426.074-84.484.074z"/><path fill="#000" d="M95.082 240.105c2.062-.005 3.515.016 5.41.877 1.565 1.515 1.981 3.265 2.375 5.329 1.193 6.257 1.539 19.691-2.053 25.061-1.743-.072-3.133-.185-4.746-.896-1.07-.472-1.864-2.069-2.233-3.108-2.268-6.365-1.77-21.241 1.247-27.263"/><path fill="#fefefe" d="M215.743 251.15c9.932-.695 20.133-.269 30.1-.271l53.432.01c.487.727.82 1.436 1.028 2.292.874 3.571 1.018 45.216.018 47.809-.253.645-.983 1.464-1.379 2.061-7.723 1.612-18.258.383-26.198.367l-57.992-.048c2.64-4.237 1.793-45.1.991-52.22"/><path fill="#fed100" d="M215.22 213.619c8.444-1.609 18.664-.537 27.361-.531l56.793.064c.369.6.739 1.272.919 1.957 1.289 5.036 1.514 21.346-1.036 25.677-3.245 1.665-74.538.489-84.65.476.082-.138.172-.272.253-.414 2.739-4.94 1.928-21.915.36-27.229"/><path fill="#000" d="M258.595 222.421c3.722-.077 7.831-.429 11.508.141 2.658.413 5.858 1.651 7.444 3.894-.036 1.383-.018 1.708-1.046 2.694-4.722 4.559-14.013 3.36-19.925 3.227-4.263.063-9.345.622-13.221-1.48-1.892-1.025-2.55-1.584-3.154-3.631.334-.69.739-1.388 1.325-1.901 4.524-3.966 11.508-3.041 17.069-2.944M24.4 21.981l204.393-.05c15.392-.008 67.193-1.697 77.313.908.901.684 1.658 1.398 2.154 2.438.919 1.933 1.235 4.235 1.361 6.35.577 9.857.46 91.383-.892 94.379-1.055 2.346-3.118 3.214-5.407 3.969-.433.082-.577.119-1.055.156-13.148.999-26.991.17-40.211.154l-78.17-.067-105.73.012c-16.587.003-33.55.786-50.09.077-2.546-.109-4.496-.525-6.494-2.236-1.302-1.967-1.767-3.721-1.96-6.043-1.127-13.58.007-28.33-.022-42.049-.03-14.92-1.605-40.906.518-54.523 1.084-2.02 2.234-2.577 4.292-3.475"/><path fill="#fefefe" d="m122.441 31.176 83.551.009c.442.729.739 1.239.938 2.075 1.261 5.207.928 75.865.135 84.319-.117 1.209-.514 2.093-1.208 3.084-3.28 1.756-72.911.526-83.386.525z"/><path fill="#000" d="M134.286 71.516c2.021.042 3.394.09 5.206 1.03 1.571 1.688 2.017 3.464 2.382 5.667 1.036 6.256 1.516 19.084-2.264 24.315-1.678-.03-3.099-.283-4.716-.722-1.575-1.395-2.099-2.82-2.498-4.819-1.216-6.113-1.616-20.295 1.89-25.471"/><path fill="#fefefe" d="M215.428 31.613c8.435-1.52 18.493-.493 27.144-.488l56.785.062c.441.731.748 1.232.937 2.073 1.334 5.687.973 75.533.153 84.321-.108 1.194-.505 2.054-1.198 3.027-3.092 1.763-74.998.59-84.316.605 1.784-3.375 2.316-81.792.495-89.6M28.32 31.17l84.561.021c-.886 29.858-.304 60.072-.019 89.948l-84.569.028z"/><path fill="#000" d="M95.048 71.599c2.068-.02 3.548-.007 5.48.845 1.493 1.54 1.969 3.067 2.357 5.113 1.167 6.14 1.462 19.828-2.118 25.048-1.755-.067-3.184-.316-4.854-.86-1.114-1.089-1.781-2.066-2.244-3.568-1.913-6.21-1.758-20.586 1.38-26.578"/></svg>
